svg/regular/bx-message-alt-detail.svg

<svg xmlns="http://www.w3.org/2000/svg" width="24" height="24"><path d="M5 2c-1.103 0-2 .897-2 2v12c0 1.103.897 2 2 2h3.586L12 21.414 15.414 18H19c1.103 0 2-.897 2-2V4c0-1.103-.897-2-2-2H5zm14 14h-4.414L12 18.586 9.414 16H5V4h14v12z"/><path d="M7 7h10v2H7zm0 4h7v2H7z"/></svg>

<svg xmlns="http://www.w3.org/2000/svg" width="24" height="24" viewBox="0 0 24 24"><path d="M5,2C3.897,2,3,2.897,3,4v12c0,1.103,0.897,2,2,2h3.586L12,21.414L15.414,18H19c1.103,0,2-0.897,2-2V4c0-1.103-0.897-2-2-2 H5z M19,16h-4.414L12,18.586L9.414,16H5V4h14V16z"/><path d="M7 7H17V9H7zM7 11H14V13H7z"/></svg>
